svg/fluentui-system-icons/ic_fluent_table_48_regular.svg

<svg width="48" height="48" viewBox="0 0 48 48" fill="none" xmlns="http://www.w3.org/2000/svg">
<path d="M35.75 6C39.2018 6 42 8.79822 42 12.25V35.75C42 39.2018 39.2018 42 35.75 42H12.25C8.79822 42 6 39.2018 6 35.75V12.25C6 8.79822 8.79822 6 12.25 6H35.75ZM8.5 19.5V28.5H17V19.5H8.5ZM8.5 31V35.75C8.5 37.8211 10.1789 39.5 12.25 39.5H17V31H8.5ZM19.5 39.5H28.5V31H19.5V39.5ZM31 39.5H35.75C37.8211 39.5 39.5 37.8211 39.5 35.75V31H31V39.5ZM39.5 28.5V19.5L31 19.5V28.5H39.5ZM39.5 17V12.25C39.5 10.1789 37.8211 8.5 35.75 8.5H31V17L39.5 17ZM28.5 8.5H19.5V17H28.5V8.5ZM17 8.5H12.25C10.1789 8.5 8.5 10.1789 8.5 12.25V17H17V8.5ZM28.5 28.5V19.5H19.5V28.5H28.5Z" fill="#212121"/>
</svg>

<svg xmlns="http://www.w3.org/2000/svg" width="48" height="48"><path d="M35.75 6A6.25 6.25 0 0 1 42 12.25v23.5A6.25 6.25 0 0 1 35.75 42h-23.5A6.25 6.25 0 0 1 6 35.75v-23.5A6.25 6.25 0 0 1 12.25 6h23.5ZM8.5 19.5v9H17v-9H8.5Zm0 11.5v4.75a3.75 3.75 0 0 0 3.75 3.75H17V31H8.5Zm11 8.5h9V31h-9v8.5Zm11.5 0h4.75a3.75 3.75 0 0 0 3.75-3.75V31H31v8.5Zm8.5-11v-9H31v9h8.5Zm0-11.5v-4.75a3.75 3.75 0 0 0-3.75-3.75H31V17h8.5Zm-11-8.5h-9V17h9V8.5ZM17 8.5h-4.75a3.75 3.75 0 0 0-3.75 3.75V17H17V8.5Zm11.5 20v-9h-9v9h9Z"/></svg>
